X:1
T:Title
%%score { ( 1 3 ) | ( 2 4 ) }
L:1/8
Q:1/4=100
M:4/4
K:Ab
V:1 treble nm="Grand Piano"
V:3 treble 
V:2 bass 
V:4 bass 
V:1
 [CA]3 [CA] [CA][CE][A,C][CE] | [EA]2 B2 c4 | B3 B BEGA | B2 c2 d4 | c3 c cB[EA]B | c2 d2 e2 e2 | %6
w: C.~Harold~Lowden * * * * *||||||
 e2 BG [=DB]2 [DB]2 | z2 d2 c2 B2 |[M:9/8] A-[CA-][CA-] [CA-][CA-][CA] [EA][EG][EF] | %9
w: |||
 F-[DF-][DF-] [DF]=DE GFE | E-[CE-][CE] [CA][Cc][CB] [EA][EG][EF] | F-[DF-][DF-] [DF]=DE GFE | %12
w: |||
 .C3 c3 .c3 | B3 z3 z3 | f3 f3 f3 | f3 e3 =d3 | .e6 z3 | %17
w: |||||
 .B6 z3[Q:1/4=97][Q:1/4=94][Q:1/4=91][Q:1/4=88][Q:1/4=84][Q:1/4=81][Q:1/4=78] | [CA]6 z3 |] %19
w: ||
V:2
 [A,,E,]3 [A,,E,] [A,,E,][A,,A,][A,,E,][A,,A,] | [C,A,]2 [E,G,E]2 [A,E]4 | %2
 [E,G,E]3 [E,G,E] [E,G,E][E,B,][E,E][E,F,E] | [E,G,E]2 [E,A,E]2 [E,B,E]4 | %4
 [A,E]3 [A,E] [A,E][E,G,E][C,A,][E,G,E] | [A,E]2 [A,B,E]2 [A,CA]2 [=A,C_G]2 | %6
 [B,G]2 [B,EG][K:bass][B,E] [B,,B,]2 [B,,A,]2 | z2[K:treble] [FG]2 [EG]2 [DEG]2 | %8
[M:9/8][K:bass] [A,,A,][A,,A,][A,,A,] [A,,A,][A,,A,][A,,A,] [C,A,][C,A,][C,A,] | %9
 [B,,G,][B,,G,][B,,G,] [E,G,][E,G,][E,G,=D] [E,B,D][E,G,D][E,G,D] | %10
 [A,,A,][A,,A,][A,,A,] [A,,A,][A,,A,][A,,A,] [C,A,][C,A,][C,A,] | %11
 [B,,G,][B,,G,][B,,G,] [E,G,][E,G,][E,G,=D] [E,B,D][E,G,D][E,G,D] | %12
 [A,,A,][A,,A,][A,,A,] [A,E]A,A, [G,B,=E][G,B,][C,C] | [F,CE][F,C][F,C] [F,CE]=E,F, A,_G,F, | %14
 [DA]DD [CE=A][CE][CE] [B,DB][K:bass][B,D][B,D] | %15
 [D,B,][D,B,][D,B,] [E,C][E,C][E,C] [=E,_C][E,C]E, | [E,C][E,C][E,C] [E,C]_C=C EG,A, | %17
 [E,G,DE][E,G,D][E,G,D] [E,G,D][E,_G,DE][E,=G,DE] [E,F][E,B,D][E,B,D] | [A,,A,]6 z3 |] %19
V:3
 x8 | x8 | x8 | x8 | x8 | x8 | x8 | E4 z4 |[M:9/8] .C3 z3 z3 | .D3 z3 z3 | .C3 z3 z3 | .D3 z3 z3 | %12
 E-[CE-][CE] z EE z =E[EB] | z EE =A=EF _A_GF | z AA z =AA z BB | AAA AAA AA_C | AAA A_c=c eGA | %17
 z EE E=AB dFG | x9 |] %19
V:4
 x8 | x8 | x8 | x8 | x8 | x8 | x3[K:bass] x5 | [E,G,]6[K:treble] z2 |[M:9/8][K:bass] x9 | x9 | x9 | %11
 x9 | x9 | x9 | x7[K:bass] x2 | x9 | x9 | x9 | x9 |] %19

